icons/unit-total.svg

<svg
  xmlns="http://www.w3.org/2000/svg"
  viewBox="0 0 500 500"
  width="500"
  height="500"
  fill="#ffffff"
>
  <rect x="229.1" y="359.6" width="122.1" height="122.12" rx="5" />
  <rect x="372.9" y="216.7" width="122.1" height="122.12" rx="5" />
  <path d="M324.5 216.7h-68.7a26.8 26.8 0 0 0-26.7 26.7v68.7a26.7 26.7 0 0 0 26.7 26.7h68.7a26.7 26.7 0 0 0 26.7-26.7v-68.7a26.8 26.8 0 0 0-26.7-26.7zm7.2 87.4a15.2 15.2 0 0 1-15.2 15.2h-52.7a15.2 15.2 0 0 1-15.2-15.2v-52.7a15.1 15.1 0 0 1 15.2-15.1h52.7a15.1 15.1 0 0 1 15.2 15.1z" />
  <path d="M468.3 359.6h-68.7a26.6 26.6 0 0 0-26.7 26.7v68.6a26.7 26.7 0 0 0 26.7 26.8h68.7a26.8 26.8 0 0 0 26.7-26.8v-68.6a26.7 26.7 0 0 0-26.7-26.7zm7.1 87.4a15.1 15.1 0 0 1-15.1 15.1h-52.7a15.2 15.2 0 0 1-15.2-15.1v-52.7a15.2 15.2 0 0 1 15.2-15.2h52.7a15.1 15.1 0 0 1 15.1 15.2z" />
  <path d="M209.5 222.5a26.7 26.7 0 0 1 26.8-26.7h46.1a140.4 140.4 0 0 0 3.9-52C279 76.1 222.8 22.7 154.9 18.6 72 13.6 3.3 80.2 5 162.4c1.6 74.1 61.7 135.2 135.7 138a140.2 140.2 0 0 0 68.8-15.1zm-53.6 1.1v22.3h-21.4v-20.8c-14.7-.7-29-4.6-37.3-9.4l6.6-25.7a76.6 76.6 0 0 0 36.4 9.7c12.5 0 21-4.8 21-13.6s-7-13.6-23.2-19.1c-23.5-7.9-39.5-18.8-39.5-40.1 0-19.2 13.6-34.4 37.1-39V67.1H157v19.3c14.7.7 24.6 3.7 31.8 7.2l-6.3 24.8c-5.7-2.4-15.8-7.5-31.6-7.5-14.2 0-18.8 6.2-18.8 12.3s7.6 11.8 26.2 18.9c26.1 9.2 36.6 21.2 36.6 40.9s-13.8 36.2-39 40.6z" />
</svg>

<svg xmlns="http://www.w3.org/2000/svg" viewBox="0 0 500 500">
  <g id="unit-total">
    <rect id="bottom-left" x="229.1" y="359.6" width="122.1" height="122.12" rx="5"/>
    <rect id="top-right" x="372.9" y="216.7" width="122.1" height="122.12" rx="5"/>
    <path id="top-left" d="M324.5,216.7H255.8a26.8,26.8,0,0,0-26.7,26.7v68.7a26.7,26.7,0,0,0,26.7,26.7h68.7a26.7,26.7,0,0,0,26.7-26.7V243.4A26.8,26.8,0,0,0,324.5,216.7Zm7.2,87.4a15.2,15.2,0,0,1-15.2,15.2H263.8a15.2,15.2,0,0,1-15.2-15.2V251.4a15.1,15.1,0,0,1,15.2-15.1h52.7a15.1,15.1,0,0,1,15.2,15.1Z"/>
    <path id="bottom-right" d="M468.3,359.6H399.6a26.6,26.6,0,0,0-26.7,26.7v68.6a26.7,26.7,0,0,0,26.7,26.8h68.7A26.8,26.8,0,0,0,495,454.9V386.3A26.7,26.7,0,0,0,468.3,359.6Zm7.1,87.4a15.1,15.1,0,0,1-15.1,15.1H407.6A15.2,15.2,0,0,1,392.4,447V394.3a15.2,15.2,0,0,1,15.2-15.2h52.7a15.1,15.1,0,0,1,15.1,15.2Z"/>
    <path id="dollar" d="M209.5,222.5a26.7,26.7,0,0,1,26.8-26.7h46.1a140.4,140.4,0,0,0,3.9-52C279,76.1,222.8,22.7,154.9,18.6,72,13.6,3.3,80.2,5,162.4c1.6,74.1,61.7,135.2,135.7,138a140.2,140.2,0,0,0,68.8-15.1Zm-53.6,1.1v22.3H134.5V225.1c-14.7-.7-29-4.6-37.3-9.4l6.6-25.7a76.6,76.6,0,0,0,36.4,9.7c12.5,0,21-4.8,21-13.6s-7-13.6-23.2-19.1c-23.5-7.9-39.5-18.8-39.5-40.1,0-19.2,13.6-34.4,37.1-39V67.1H157V86.4c14.7.7,24.6,3.7,31.8,7.2l-6.3,24.8c-5.7-2.4-15.8-7.5-31.6-7.5-14.2,0-18.8,6.2-18.8,12.3s7.6,11.8,26.2,18.9c26.1,9.2,36.6,21.2,36.6,40.9S181.1,219.2,155.9,223.6Z"/>
  </g>
</svg>
